!!!COM: Charles Gounod
!!!CNT: Francais
!!!TXO: Francais
!!!OTL: "Solitude"
!!!LYR: Lamartine
!!!OPR: 
!!!OPS: Op. 
!!!ONM: No.
!!!ENC: Emily Thomas
!!!YOR: CD Sheet Music French Art Songs, The Ultimate Collection
!!!YOR: CD Sheet Music, LLC 2003
!!!ODT: 1865/
!!NB: Vocal melody and text encoded.
**kern	**silbe
=1	=1
*clefG2	*
*k[b-]	*
*M4/4	*
*MM[Andantino.]	*
1r	.
=2	=2
1r	.
=3	=3
1r	.
=4	=4
2r	.
4r	.
8r	.
{8a	{Je
=5	=5
2a	sais
4a	sur
8a	la
8a	col-
=6	=6
2a	-li-
8a}	-ne}
8r	.
{8bn	{Un-
8bn	-e
=7	=7
2cc	blan-
4.a	-che
8a	mai-
=8	=8
[2b-	-son,
8b-]}	|}
8r	.
{8.dd	{Un
16dd	ro-
=9	=9
2dd	-cher
4.ee	la
8ee	do-
=10	=10
2ff	-mi-
4cc}	-ne,}
4r	.
=11	=11
{4.a	{Un
8a	bui-
4bn	-sson
12bn	d'au-
12cc	|
12dd	-be/
=12	=12
2ee	-pi-
4a}	-ne}
4r	.
=13	=13
{4g	{Est
[4cc	tout
8cc]	|
8dd	son
8a	hor-
8bn	-i-
=14	=14
[2cc	-zon
4cc]}	|}
4r	.
=15	=15
{4.cc	{La\
8cc	ja-
4ff	-mais
8cc	ne
8dd	s'e/-
=16	=16
2ee	-le\-
4cc}	-ve}
4r	.
=17	=17
{4.a	{Bruit
8a	qui
4dd	fas-
8a	-se
8bn	pen-
=18	=18
[2cc#	-ser!...
4cc#]}	|}
4r	.
=19	=19
*k[f#c#]	*
{4a	{Jus-
8.g	-qu'a\
16f#	ce
4.dd	qu'il
8dd	s'a-
=20	=20
4dd	-che\-
4cc#}	-ve}
4r	.
{4a	{On
=21	=21
[2ff#	peut
12ff#	|
12ee	|
12dd	me-
12dd	-ner
12cc#	|
12b	son
=22	=22
4.a	re^-
8cc#q	|
8b	|
4a}	-ve}
4r	.
=23	=23
{4dd	{On
8dd	peut
8dd	me-
4dd	-ner
4gg	son
=24	=24
4ff#	re^-
8a	-ve
8dd	Et
8dd	le
8ee	re-
8b	-com-
8cc	-men-
=25	=25
[2dd	-cer!
4dd]}	|}
4r	.
=26	=26
1r	.
=27	=27
1r	.
=28	=28
*k[b-]	*
2r	.
4r	.
{8.a	{Le
16a	clo-
=29	=29
2a	-cher
4.a	du
8a	vil-
=30	=30
2a	-la-
8a}	-ge}
8r	.
{4bn	{Sur-
=31	=31
4.cc	-mon-
8cc	-te
4.a	ce
8a	se/-
=32	=32
[2b-	-jour
8b-]}	|}
8r	.
{4dd	{Sa
=33	=33
2dd	voix
4ee	comme
8ee	un
8ee	hom-
=34	=34
2ff	-ma-
4cc}	-ge}
4r	.
=35	=35
{2a	{Monte
8.bn	au
16bn	pre-
12bbn	-ier
12cc	|
12dd	nu-
=36	=36
2ee	-a-
4a}	-ge}
4r	.
=37	=37
{8.g	{Que
16g	co-
[4cc	-lo-
8cc]	|
8dd	|
8a	-re
8bn	le
=38	=38
[2cc	jour!
8cc]}	|}
8r	.
8r	.
{8cc	{Si-
=39	=39
2cc	-gnal
4ff	de
8.cc	la
16dd	pri-
=40	=40
2ee	-e\-
4cc}	-re}
4r	.
=41	=41
{8.a	El-
16a	-le
2dd	part
8a	du
8bn	saint
=42	=42
[2cc#	lieu
4cc#]}	|}
4r	.
=43	=43
*k[f#c#]	*
{4a	{Ap-
8.g	|
16f#	pe-
4dd	-lant,
8.dd	la
16dd	pre-
=44	=44
4dd	-mie\-
4cc}	-re,}
4r	.
{4a	{L'en-
=45	=45
[2ff#	-fant
12ff#]	|
12ee	|
12dd	de
12dd	la
12cc#	|
12b	chau-
=46	=46
4.a	-mie\-
8cc#q	|
8b	|
4a}	-re,}
4r	.
=47	=47
{4dd	{L'en-
8dd	-fant
8dd	de
4dd	la
4gg	chau-
=48	=48
4ff#	-mie\-
8a	-re
8dd	A
8dd	la
8ee	mai-
8b	-son
8cc#	de
=49	=49
[2dd	Dieu!
4dd]}	|}
4r	.
=50	=50
1r	.
=51	=51
1r	.
=52	=52
*k[b-]	*
2r	.
4r	.
{8.a	{La
16a	fe-
=53	=53
2a	-ne^tre
4.a	est
8a	tour-
=54	=54
2a	-ne/-
8a}	-e}
8r	.
{8bn	{Vers
8bn	le
=55	=55
2cc	champ
4.a	des
8a	tom-
=56	=56
[2b-	-beaux
8b-]}	|}
8r	.
{4dd	{Ou\
=57	=57
2dd	l'her-
4ee	-be
8ee	mou-
8ee	-ton-
=58	=58
2ff	-ne/-
4cc}	-e}
4r	.
=59	=59
{4.a	{Couvre
8a	a-
4bn	-pre\s
12b-	la
12cc	|
12dd	jour-
=60	=60
2ee	-ne/-
4a}	-e}
4r	.
=61	=61
{8.g	{Le
16g	som-
[4cc	-meil
8cc]	|
8dd	|
8a	des
8bn	ha-
=62	=62
[2cc	-meaux!
4cc]}	|}
4r	.
=63	=63
{2cc	{Paix
8ff	et
8cc	me/-
8cc	-lan-
8dd	-co-
=64	=64
2ee	-li-
4cc}	-e}
4r	.
=65	=65
{8.a	{Veil-
16a	-lent
2dd	la\
8a	pre\s
8bn	des
=66	=66
[2cc#	morts!
4cc#]}	|}
4r	.
=67	=67
*[f#c#]	*
{4a	{Et
8g	l'a^-
8f#	-me
4.dd	re-
8dd	-cueil-
=68	=68
4dd	-li-
4cc#}	-e}
4r	.
{4a	{Des
=69	=69
[2ff#	va-
12ff#	|
12ee	|
12dd	-gues
12dd	de
12cc#	|
12b	la
=70	=70
4.a	vi-
8cc#q	|
8b	|
4a}	-e,}
4r	.
=71	=71
{4dd	{Des
8dd	va-
8dd	-gues
4dd	de
4gg	la
=72	=72
4ff#	vi-
8a	-e
8dd	Croit
8dd	y
8ee	tou-
8b	-cher
8cc#	les
=73	=73
[2dd	bords!
4dd]}	|}
4r	.
==	==
*-	*-
